X: 12
T: Miss Stewart of Ballechen's Favourite
C: 
R: jig
Q: "Slowish"
B: William Shepherd "1st Collection" 1793 p.1 #2
F: http://imslp.org/wiki/File:PMLP73094-Shepherd_Collections_HMT.pdf
C: William Shepherd (17??-1812)
Z: 2012 John Chambers <jc:trillian.mit.edu>
M: 6/8
L: 1/8
K: G
D |\
G2G GBG | E2E EFG | A2A ABc | BGB AFD |\
G2G GBG | E2E EFG | AFD DEF | TG3 G,2 :|
c |\
(B/c/d).d Td2g | ece dBG | {d}cBc EFG | ABG AFD |\
(B/c/d).d Td2g | ece dBG | EcA {G}FEF | TG3 G,2 ||
c |\
(B/c/d).d Td2g | ece dBG | {d}cBc EFG | ABG AFD |\
(B,D).D DGD | (CE).E EcB | AFD DEF | TG3 G,2 |]
